assets/images/Group 145581(1).svg

<svg width="20" height="20" viewBox="0 0 20 20" fill="none" xmlns="http://www.w3.org/2000/svg">
<path d="M9.99697 19.9989C7.59777 19.9989 5.19878 19.9974 2.79958 20C2.15427 20.0006 1.56779 19.8271 1.06041 19.4256C0.344525 18.8592 -0.00019772 18.1109 0.000228653 17.1989C0.00129459 13.4014 0.000655026 9.60414 0.000655026 5.80664C0.000655026 4.80232 0.00300008 3.798 1.54664e-05 2.79346C-0.00190321 2.15198 0.174615 1.56892 0.573701 1.06495C1.12926 0.363136 1.86284 0.00881953 2.75844 0.00711404C4.5507 0.00348986 6.34296 0.00498217 8.13522 0.00668766C8.60934 0.00711404 8.95684 0.273811 9.06386 0.708498C9.202 1.26918 8.77307 1.82432 8.19619 1.82474C6.39327 1.82645 4.59035 1.82581 2.78764 1.82517C2.54163 1.82517 2.31927 1.88806 2.13231 2.05371C1.91422 2.24685 1.8202 2.4933 1.82042 2.78088C1.82084 4.20049 1.82042 5.6201 1.82042 7.03971C1.82042 10.429 1.82042 13.8182 1.82063 17.2074C1.82063 17.7933 2.20735 18.1791 2.79255 18.1794C7.59777 18.1794 12.4032 18.1794 17.2084 18.1794C17.7853 18.1794 18.174 17.7896 18.174 17.2113C18.1742 15.412 18.1735 13.6127 18.1744 11.8134C18.1746 11.37 18.5089 10.979 18.9327 10.9206C19.3966 10.8564 19.8176 11.1167 19.9526 11.5501C19.9856 11.6563 19.9931 11.7656 19.9933 11.8756C19.9937 13.6572 19.9878 15.4388 19.9954 17.2204C20.0012 18.578 19.0815 19.6254 17.942 19.9143C17.693 19.9774 17.44 19.9991 17.1839 19.9991C14.7883 19.9991 12.3928 19.9991 9.99719 19.9991L9.99697 19.9989Z" fill="#7E7E7E"/>
<path d="M16.852 1.8203C16.7283 1.8203 16.6049 1.8203 16.4812 1.8203C15.5515 1.8203 14.6218 1.82115 13.6921 1.81987C13.2048 1.81923 12.8505 1.54742 12.7454 1.09823C12.6198 0.561217 13.0474 0.00352042 13.5981 0.00245448C15.4396 -0.00116969 17.2813 -0.000316941 19.1231 0.00202811C19.6008 0.00266767 19.9956 0.414971 19.9958 0.905726C19.9969 2.49183 19.9963 4.07794 19.9961 5.66405C19.9961 5.90175 19.9971 6.13946 19.9956 6.37737C19.9929 6.86131 19.6068 7.24931 19.1098 7.26892C18.6361 7.28768 18.2049 6.91652 18.1874 6.44282C18.168 5.91476 18.1776 5.38563 18.1765 4.85714C18.1752 4.31778 18.1763 3.77842 18.1763 3.23905C18.1763 3.20452 18.1763 3.17019 18.1763 3.13566C18.1646 3.12649 18.1526 3.11732 18.1409 3.10816C18.1157 3.14419 18.0951 3.18512 18.0646 3.21582C15.0028 6.28123 11.9406 9.346 8.87795 12.4108C8.55305 12.7359 8.15908 12.8154 7.78515 12.6325C7.23513 12.3634 7.09826 11.6476 7.51099 11.1958C7.54446 11.1591 7.57985 11.1242 7.61503 11.0892C10.6711 8.03298 13.7271 4.97695 16.7838 1.92156C16.8108 1.89449 16.8473 1.87679 16.8795 1.85483C16.8703 1.84332 16.8609 1.83202 16.8518 1.82051L16.852 1.8203Z" fill="#7E7E7E"/>
</svg>

<svg xmlns="http://www.w3.org/2000/svg" width="20" height="20" fill="none"><path fill="#7E7E7E" d="M9.997 19.999q-3.6-.002-7.197.001c-.646 0-1.232-.173-1.74-.574C.345 18.859 0 18.11 0 17.199V5.807c0-1.005.003-2.009 0-3.014-.002-.641.175-1.224.574-1.728C1.129.363 1.863.009 2.758.007q2.69-.005 5.377 0c.474 0 .822.267.929.701a.904.904 0 0 1-.868 1.117H2.788a.95.95 0 0 0-.656.229.92.92 0 0 0-.312.727v14.426c0 .586.387.972.973.972h14.415c.577 0 .966-.39.966-.968v-5.398c0-.443.335-.834.759-.892a.915.915 0 0 1 1.06.955c0 1.781-.005 3.563.002 5.344a2.744 2.744 0 0 1-2.053 2.694 3 3 0 0 1-.758.085z"/><path fill="#7E7E7E" d="M16.852 1.82h-3.16c-.487 0-.841-.273-.947-.722-.125-.537.302-1.094.853-1.096q2.763-.004 5.525 0c.478 0 .873.413.873.904v5.471a.904.904 0 0 1-.886.892c-.474.019-.905-.352-.923-.826-.019-.528-.01-1.057-.01-1.586q-.002-.81 0-1.618v-.103l-.036-.028c-.025.036-.046.077-.076.108L8.878 12.41c-.325.325-.719.404-1.093.222a.91.91 0 0 1-.274-1.437q.05-.055.104-.107l9.169-9.167c.027-.028.063-.045.096-.067z"/></svg>
